X:2134
T:Brian Maguire
Z: id:dc-ocarolan-18
M:4/4
L:1/8
K:F Major
C2FE F2DE|F2ED C2A,2|B2BG A/B/ccA|F2A2 c2f2|!
fefg fefg|
M:2/4
a2g/f/e|
M:4/4
d3a d3a|g3f e2de|!
|fcde fcde|fedc B2AG|A2DA G2CE|F2FE F4:|!
A/B/c/A/FA FAcA|B2Bd B2Bd|cBAG ABcA|F2FA F2FA|!
GAGF GAB2|ABAG ABc2|BAGF EFGA|F2ED D4|!
cdef fgga|abbc' a2gf|gafa f2ed|c2e2 f4:|!


